Numix-GalliumOS/16/mimetypes/application-flash.svg

<?xml version="1.0" encoding="UTF-8" standalone="no"?>
<svg
   xmlns:dc="http://purl.org/dc/elements/1.1/"
   xmlns:cc="http://creativecommons.org/ns#"
   xmlns:rdf="http://www.w3.org/1999/02/22-rdf-syntax-ns#"
   xmlns:svg="http://www.w3.org/2000/svg"
   xmlns="http://www.w3.org/2000/svg"
   xmlns:sodipodi="http://sodipodi.sourceforge.net/DTD/sodipodi-0.dtd"
   xmlns:inkscape="http://www.inkscape.org/namespaces/inkscape"
   width="16"
   height="16"
   viewBox="0 0 16 16"
   id="svg2"
   version="1.1"
   inkscape:version="0.48.5 r10040"
   sodipodi:docname="application-flash.svg">
  <metadata
     id="metadata16">
    <rdf:RDF>
      <cc:Work
         rdf:about="">
        <dc:format>image/svg+xml</dc:format>
        <dc:type
           rdf:resource="http://purl.org/dc/dcmitype/StillImage" />
      </cc:Work>
    </rdf:RDF>
  </metadata>
  <defs
     id="defs14" />
  <sodipodi:namedview
     pagecolor="#ffffff"
     bordercolor="#666666"
     borderopacity="1"
     objecttolerance="10"
     gridtolerance="10"
     guidetolerance="10"
     inkscape:pageopacity="0"
     inkscape:pageshadow="2"
     inkscape:window-width="1280"
     inkscape:window-height="970"
     id="namedview12"
     showgrid="true"
     inkscape:zoom="7.375"
     inkscape:cx="-16.21042"
     inkscape:cy="10.767089"
     inkscape:window-x="0"
     inkscape:window-y="0"
     inkscape:window-maximized="1"
     inkscape:current-layer="svg2">
    <inkscape:grid
       type="xygrid"
       id="grid3004" />
  </sodipodi:namedview>
  <path
     style="fill:#cc2929;fill-opacity:1"
     d="M 2.667969,-4.463e-4 C 2.324219,-4.463e-4 2,0.3378117 2,0.6964464 L 2,15.303108 C 2,15.641365 2.34375,16 2.667969,16 l 10.664062,0 C 13.65625,16 14,15.641365 14,15.303108 L 14,3.9995535 10,-4.463e-4 z"
     id="path4-6"
     inkscape:connector-curvature="0"
     sodipodi:nodetypes="ssssssccs" />
  <path
     style="fill:#000000;fill-opacity:0.19599998"
     d="m 10.583223,3.3315845 0.0154,0.01953 0.04005,-0.01953 z m 0.02978,0.667969 3.387,3.664062 0,-3.664062 z"
     id="path6"
     inkscape:connector-curvature="0"
     sodipodi:nodetypes="cccccccc" />
  <path
     style="fill:#ffffff;fill-opacity:0.39200003"
     d="m 10,-4.463e-4 3.996396,3.9999998 -3.383784,0 C 10.313513,3.9995535 10,3.6824365 10,3.3833375 z"
     id="path8"
     inkscape:connector-curvature="0"
     sodipodi:nodetypes="ccssc" />
  <path
     style="fill:#ffffff;fill-rule:evenodd"
     d="m 4.2472515,11.23077 0.2142861,1.604396 c 0,0 2.7527476,0.862637 4.1318691,-3.0769239 L 11,9.7582421 11,8 9.5,8 c 0,0 0.697803,-1.8406602 2.252748,-1.9945063 0,-0.038462 -0.17033,-1.5219781 -0.17033,-1.5219781 0,0 -2.5549449,-0.3516484 -4.1043965,3.4340664 -1.3406597,3.703297 -3.23077,3.313188 -3.23077,3.313188 z"
     id="path10"
     inkscape:connector-curvature="0" />
</svg>

<svg xmlns="http://www.w3.org/2000/svg" viewBox="0 0 16 16">
 <path d="m 2.668 0 c -0.344 0 -0.668 0.338 -0.668 0.697 l 0 14.607 c 0 0.338 0.344 0.697 0.668 0.697 l 10.664 0 c 0.324 0 0.668 -0.359 0.668 -0.697 l 0 -11.304 -4 -4 z" style="fill:#cc2929;fill-opacity:1"/>
 <path d="m 10.583 3.332 0.015 0.02 0.04 -0.02 z m 0.03 0.668 3.387 3.664 0 -3.664 z" style="fill:#000;fill-opacity:0.196"/>
 <path d="m 10 0 3.996 4 -3.384 0 c -0.299 0 -0.613 -0.317 -0.613 -0.616 z" style="fill:#fff;fill-opacity:0.392"/>
 <path d="m 4.247 11.231 0.214 1.604 c 0 0 2.753 0.863 4.132 -3.077 l 2.407 0 0 -1.758 -1.5 0 c 0 0 0.698 -1.841 2.253 -1.995 0 -0.038 -0.17 -1.522 -0.17 -1.522 0 0 -2.555 -0.352 -4.104 3.434 -1.341 3.703 -3.231 3.313 -3.231 3.313 z" style="fill:#fff;fill-rule:evenodd"/>
</svg>
